!!!COM: Fux, Johann Joseph
!!!OMD: Gradus ad Parnassum Exercise
!!!YEC: CC0 1.0 Universal (Public Domain). Mark Gotham and FourScoreAndMore.org waive all rights to this document.
**kern	**kern	**kern
*part3	*part2	*part1
*staff3	*staff2	*staff1
*I"3	*I"2	*I"1
*I'Pno	*I'Pno	*I'Pno
!!LO:PB:g=z
*clefF4	*clefG2	*clefG2
*k[]	*k[]	*k[]
!!LO:TX:omd:t=
*M4/4	*M4/4	*M4/4
=140	=140	=140
!	!	!LO:TX:a:t=Fig. 116; Species&colon; 1; Modal final&colon; a; Cantus firmus&colon; 2
1AA	1A	1e
=141	=141	=141
1AA	1c	1e
=142	=142	=142
1E	1B	1g
=143	=143	=143
1D	1d	1f
=144	=144	=144
1A	1c	1e
=145	=145	=145
1A	1e	1cc
=146	=146	=146
1D	1f	1a
=147	=147	=147
1C	1e	1cc
=148	=148	=148
1G	1d	1b
=149	=149	=149
1A	1c	1a
=150	=150	=150
1E	1B	1g#X
=151	=151	=151
1AA	1A	1a
==	==	==
*-	*-	*-
!!!software: music21 v.9.7.1
!!!software: music21 v.9.7.1
!!!software: MuseScore 3.4.2
!!!RDF**kern: > = above
!!!RDF**kern: < = below
